X:153
T:Don't Come Again
R:song
H:This song comes from the singing of Eddie and Gracie Butcher, Co. Derry
D:Paul Brady: Welcome Here Kind Stranger
Z:id:hn-song-153
M:6/8
L:1/8
Q:3/8=120
K:Em
GA | B2E E2E | E2D D2E | G2A B2B | A3- A2
A | B2E E2E | E2D D2E | G2A B2G | A3- A2
B | d2d d2e | d3 B2c | d3 B2G | A3
G2A | BBB B2G | A2B A2G | E3 E2D | G3
G2E | D3 D2B, | D3
G2A | BBB B2G | A2B A2G | E3 E2D | E3- E2 ||
W:Oh, the first place that I saw my love it was at a ball,
W:I looked at her, I gazed on her, oh, far above them all,
W:But aye she look\'ed on me with scorn and disdain
W:And the bonnie wee lassie's answer was to no come again,
W:Was to no come again,
W:And the bonnie wee lassie's answer was to no come again.
W:
W:The next place that I saw my love it was at a wake,
W:I looked at her, I gazed on her, I thought my heart would break,
W:But aye she looked on me with scorn and disdain
W:and the bonny wee lassie's answer was to no come again,
W:Was to no come again,
W:And the bonnie wee lassie's answer was to no come again.
W:
W:It being in six months after, a little or above,
W:When Cupid shot his arrow and he wounded my true love,
W:He wounded her severely, it caused her to complain
W:And she wrote to me a letter saying, "You might come again",
W:saying "you might come again",
W:And she wrote to me a letter saying, "You might come again",
W:
W:I wrote her back an answer all for to let her know
W:While life was in my body it's there I wouldnae go,
W:While life was in my body and while it does remain
W:I will aye mind the girl that said - "Don't come again",
W:that said "don't come again",
W:I will aye mind the girl that said - "Don't come again",
W:
W:Come all you pretty fair maids, a warning take by me,
W:Never slight a young man wherever they may be,
W:For if you do you're sure to rue, they'll cause you to complain
W:And you'll aye rue the day that you said, "Don't come again",
W:You said "Don't come again",
W:You will aye rue the day you said "Don't come again".

